X:1
T:We’ll Never Say Goodbye
T:John Harrison Tenney
T:We’ll Never Say Goodbye
T:Public Domain
T:Public Domain
C:John Harrison Tenney
Z:Public Domain
%%score ( 1 2 ) 3
L:1/8
M:6/8
K:Bb
V:1 treble 
V:2 treble 
V:3 bass 
V:1
 [DF] | [DF]2 [B,D] [DF]2 [DB] | [Fd]2 [FB] [GB][FA][EG] | [DF]2 [B,D] [DF]2 [DB] | %4
w: 1.~With|friends on earth we|meet in glad- ness, While|swift the mo- ments|
w: 2.~How|joy- ful is the|hope that lin- gers, When|loved ones cross death’s|
w: 3.~No|part- ing words shall|e’er be spok- en, In|yon- der home so|
 [Fc]3- [Fc]2 [EF] | [DF]2 [DB] [Fd]2 [DB] | [EG]2 [Ec] [Ge][Fd][Gc] | [FB]2 F [EG]2 [EA] | %8
w: fly, * Yet|ev- er comes the|tho’t of sad- ness, That|we must say, “Good-|
w: sea, * That|we, when all earth’s|toils are end- ed, With|Thee shall ev- er|
w: fair, * But|songs of joy, and|peace, and glad- ness, We’ll|sing for- ev- er|
 [DB]3- [DB]2 ||"^Refrain" [DF] | [DF] [Fd]2 [DB]2 [DF] | [EG]2 [EG] [EG]2 [FG] | %12
w: ||||
w: ||||
w: ||||
 [=EG] [Ec]2 [Ec]2 [Ed] | [Fc]3- [Fc]2 [Fc] | [Fd]2 [Fc] [FB]2 [FA] | [FA]2 [EG] [Ge]2 [Gc] | %16
w: ||||
w: ||||
w: ||||
 [FB] [Fd]2 [Ec]2 [EA] | [DB]3- [DB]2 |] %18
w: ||
w: ||
w: ||
V:2
 x | x6 | x6 | x6 | x6 | x6 | x6 | x2 F x3 | x5 || x | x6 | x6 | x6 | x6 | x6 | x6 | x6 | x5 |] %18
w: |||||||bye.”|||||||||||
w: |||||||be.|||||||||||
w: |||||||there.|||||||||||
V:3
 [B,,B,] | [B,,B,]2 [B,,F,] [B,,B,]2 [B,,B,] | [B,,B,]2 [D,B,] [E,B,][E,B,][E,B,] | %3
w: ~|~ ~ ~ ~|~ ~ ~ ~ ~|
 [B,,B,]2 [B,,F,] [B,,B,]2 [B,,B,] | [F,A,]3- [F,A,]2 [F,C] | [B,,B,]2 [B,,B,] [B,,B,]2 [B,,B,] | %6
w: ~ ~ ~ ~|~ * ~|~ ~ ~ ~|
 [E,B,]2 [E,G,] [C,C][D,=B,][E,C] | [F,D]2 [F,D] [F,C]2 [F,C] | [B,,B,]3- [B,,B,]2 || [B,,B,] | %10
w: ~ ~ ~ ~ ~|~ ~ ~ ~|~ *|We’ll|
 [B,,B,] [B,,B,]2 [B,,F,]2 [B,,B,] | [E,B,]2 [E,B,] [E,B,]2 [D,=B,] | %12
w: nev- er say good-|bye in Heav’n, We’ll|
 [C,C] [C,G,]2 [C,B,]2 [C,B,] | ([F,A,]2 [F,A,] [F,A,]2) [F,A,] | [B,,B,]2 [C,A,] [D,B,]2 [D,B,] | %15
w: nev- er say good-|bye, * * For|in that land of|
 [E,B,]2 [E,B,] [E,B,]2 [E,E] | [F,D] [F,B,]2 [F,A,]2 [F,C] | [B,,B,]3- [B,,B,]2 |] %18
w: joy and song, We’ll|nev- er say good-|bye. *|

